X:282
T: Des Lindenwirts Rsel (3-84), S. 233
N: P1057
O: Lothringen
S: PINCK, Louis: Verklingende Weisen, Bd3, Metz 1933]
R: Untreue, Liebe zu jemand anderem]
M: 4/4
L: 1/16
K: Bb
B4 | c2c2B4_A3GG4 | G3FF2F2F4
G4 | B4_A4C4D4 | F6E2E4
B4 | c2c2B4_A3GG4 | B3FF2F2F4
G4 | B4B4B3BB2B2 | E8z6
G2 | F3FF2F2G4z2
_A2 | B2AAB2c2d4z2
d2 | f4e2d2c4c2c2 | d4B2G2F4z2
F2 | F3FF2F2G4z2
A2 | B2AAB2c2d4z2
d2 | f4e4G4d2c2 | B8z4

